X:302
T: Ave Knigin (4-3), S. 5
N: P0564
O: Lothringen
S: PINCK, Louis: Verklingende Weisen Bd 4, Kassel 1939]
R: geistliches, religiöses Lied]
M: 4/4
L: 1/8
K: G
D2 | G2G2G2A2 | G2G2D4
B4A2B2 | c2B2A2
B2 | d3dd2e2 | d2d2B2G2
e4d4 | c2A2G4 | A2A2B2A2 | G4z2

